third_party/noto/noto_2/emoji_u1f440.svg

<svg enable-background="new 0 0 128 128" version="1.1" viewBox="0 0 128 128" xmlns="http://www.w3.org/2000/svg"><path d="m34.16 106.51c-15.43 0-27.97-19.07-27.97-42.51s12.55-42.51 27.97-42.51 27.97 19.07 27.97 42.51-12.55 42.51-27.97 42.51z" fill="#FAFAFA"/><path d="m34.16 23.49c6.63 0 12.98 4 17.87 11.27 5.22 7.75 8.1 18.14 8.1 29.24s-2.88 21.49-8.1 29.24c-4.89 7.27-11.24 11.27-17.87 11.27s-12.98-4-17.87-11.27c-5.23-7.75-8.1-18.14-8.1-29.24s2.88-21.49 8.1-29.24c4.89-7.27 11.23-11.27 17.87-11.27m0-4c-16.55 0-29.97 19.93-29.97 44.51s13.42 44.51 29.97 44.51 29.97-19.93 29.97-44.51-13.42-44.51-29.97-44.51z" fill="#B0BEC5"/><linearGradient id="b" x1="22.523" x2="22.523" y1="46.676" y2="82.083" gradientUnits="userSpaceOnUse"><stop stop-color="#424242" offset="0"/><stop stop-color="#212121" offset="1"/></linearGradient><path d="m25.63 59.84c-2.7-2.54-2.1-7.58 1.36-11.26 0.18-0.19 0.36-0.37 0.55-0.54-1.54-0.87-3.23-1.36-5.01-1.36-7.19 0-13.02 7.93-13.02 17.7s5.83 17.7 13.02 17.7 13.02-7.93 13.02-17.7c0-1.75-0.19-3.45-0.54-5.05-3.24 2.33-7.11 2.64-9.38 0.51z" fill="url(#b)"/><ellipse cx="93.84" cy="64" rx="29.97" ry="44.51" fill="#eee"/><path d="m93.84 106.51c-15.42 0-27.97-19.07-27.97-42.51s12.55-42.51 27.97-42.51 27.97 19.07 27.97 42.51-12.54 42.51-27.97 42.51z" fill="#FAFAFA"/><path d="m93.84 23.49c6.63 0 12.98 4 17.87 11.27 5.22 7.75 8.1 18.14 8.1 29.24s-2.88 21.49-8.1 29.24c-4.89 7.27-11.24 11.27-17.87 11.27s-12.98-4-17.87-11.27c-5.22-7.75-8.1-18.14-8.1-29.24s2.88-21.49 8.1-29.24c4.89-7.27 11.24-11.27 17.87-11.27m0-4c-16.55 0-29.97 19.93-29.97 44.51s13.42 44.51 29.97 44.51 29.97-19.93 29.97-44.51-13.42-44.51-29.97-44.51z" fill="#B0BEC5"/><linearGradient id="a" x1="82.209" x2="82.209" y1="46.676" y2="82.083" gradientUnits="userSpaceOnUse"><stop stop-color="#424242" offset="0"/><stop stop-color="#212121" offset="1"/></linearGradient><path d="m85.31 59.84c-2.7-2.54-2.1-7.58 1.36-11.26 0.18-0.19 0.36-0.37 0.55-0.54-1.54-0.87-3.23-1.36-5.01-1.36-7.19 0-13.02 7.93-13.02 17.7s5.83 17.7 13.02 17.7 13.02-7.93 13.02-17.7c0-1.75-0.19-3.45-0.54-5.05-3.23 2.33-7.11 2.64-9.38 0.51z" fill="url(#a)"/></svg>

<?xml version="1.0" encoding="utf-8"?>
<!-- Generator: Adobe Illustrator 24.1.2, SVG Export Plug-In . SVG Version: 6.00 Build 0)  -->
<svg version="1.1" id="eyes" xmlns="http://www.w3.org/2000/svg" xmlns:xlink="http://www.w3.org/1999/xlink" x="0px" y="0px"
	 viewBox="0 0 128 128" style="enable-background:new 0 0 128 128;" xml:space="preserve">
<g>
	<g>
		<g>
			<g>
				<path style="fill:#FAFAFA;" d="M34.16,106.51C18.73,106.51,6.19,87.44,6.19,64c0-23.44,12.55-42.51,27.97-42.51
					c15.42,0,27.97,19.07,27.97,42.51C62.13,87.44,49.58,106.51,34.16,106.51z"/>
				<path style="fill:#B0BEC5;" d="M34.16,23.49c6.63,0,12.98,4,17.87,11.27c5.22,7.75,8.1,18.14,8.1,29.24s-2.88,21.49-8.1,29.24
					c-4.89,7.27-11.24,11.27-17.87,11.27s-12.98-4-17.87-11.27C11.06,85.49,8.19,75.1,8.19,64s2.88-21.49,8.1-29.24
					C21.18,27.49,27.52,23.49,34.16,23.49 M34.16,19.49C17.61,19.49,4.19,39.42,4.19,64s13.42,44.51,29.97,44.51
					S64.13,88.58,64.13,64S50.71,19.49,34.16,19.49L34.16,19.49z"/>
			</g>
			<linearGradient id="SVGID_1_" gradientUnits="userSpaceOnUse" x1="22.5233" y1="46.6759" x2="22.5233" y2="82.0828">
				<stop  offset="0" style="stop-color:#424242"/>
				<stop  offset="1" style="stop-color:#212121"/>
			</linearGradient>
			<path style="fill:url(#SVGID_1_);" d="M25.63,59.84c-2.7-2.54-2.1-7.58,1.36-11.26c0.18-0.19,0.36-0.37,0.55-0.54
				c-1.54-0.87-3.23-1.36-5.01-1.36c-7.19,0-13.02,7.93-13.02,17.7s5.83,17.7,13.02,17.7s13.02-7.93,13.02-17.7
				c0-1.75-0.19-3.45-0.54-5.05C31.77,61.66,27.9,61.97,25.63,59.84z"/>
		</g>
	</g>
	<g>
		<g>
			<ellipse style="fill:#EEEEEE;" cx="93.84" cy="64" rx="29.97" ry="44.51"/>
			<g>
				<path style="fill:#FAFAFA;" d="M93.84,106.51c-15.42,0-27.97-19.07-27.97-42.51c0-23.44,12.55-42.51,27.97-42.51
					c15.42,0,27.97,19.07,27.97,42.51C121.81,87.44,109.27,106.51,93.84,106.51z"/>
				<path style="fill:#B0BEC5;" d="M93.84,23.49c6.63,0,12.98,4,17.87,11.27c5.22,7.75,8.1,18.14,8.1,29.24s-2.88,21.49-8.1,29.24
					c-4.89,7.27-11.24,11.27-17.87,11.27s-12.98-4-17.87-11.27c-5.22-7.75-8.1-18.14-8.1-29.24s2.88-21.49,8.1-29.24
					C80.86,27.49,87.21,23.49,93.84,23.49 M93.84,19.49c-16.55,0-29.97,19.93-29.97,44.51s13.42,44.51,29.97,44.51
					S123.81,88.58,123.81,64S110.39,19.49,93.84,19.49L93.84,19.49z"/>
			</g>
			<linearGradient id="SVGID_2_" gradientUnits="userSpaceOnUse" x1="82.2093" y1="46.6759" x2="82.2093" y2="82.0828">
				<stop  offset="0" style="stop-color:#424242"/>
				<stop  offset="1" style="stop-color:#212121"/>
			</linearGradient>
			<path style="fill:url(#SVGID_2_);" d="M85.31,59.84c-2.7-2.54-2.1-7.58,1.36-11.26c0.18-0.19,0.36-0.37,0.55-0.54
				c-1.54-0.87-3.23-1.36-5.01-1.36c-7.19,0-13.02,7.93-13.02,17.7s5.83,17.7,13.02,17.7c7.19,0,13.02-7.93,13.02-17.7
				c0-1.75-0.19-3.45-0.54-5.05C91.46,61.66,87.58,61.97,85.31,59.84z"/>
		</g>
	</g>
</g>
</svg>
